icons/svgs/chart-mixed-outline.svg

<svg width="24" height="24" viewBox="0 0 24 24" fill="none" xmlns="http://www.w3.org/2000/svg">
<path d="M21.6482 4.92971L15.0857 10.5547C14.7342 10.8281 14.2264 10.8281 13.8748 10.5547L9.42167 6.64846L3.44511 10.5938C3.01542 10.9063 2.42949 10.7891 2.15605 10.3594C1.84355 9.92971 1.96074 9.34377 2.39042 9.03127L8.95292 4.65627C9.30449 4.4219 9.77324 4.46096 10.0857 4.7344L14.4998 8.60158L20.4373 3.4844C20.8279 3.1719 21.4139 3.21096 21.7654 3.60158C22.0779 3.99221 22.0389 4.57815 21.6482 4.92971ZM9.8123 18.875V12.625C9.8123 12.4688 9.65605 12.3125 9.4998 12.3125C9.30449 12.3125 9.1873 12.4688 9.1873 12.625V18.875C9.1873 19.0703 9.30449 19.1875 9.4998 19.1875C9.65605 19.1875 9.8123 19.0703 9.8123 18.875ZM9.4998 10.75C10.5154 10.75 11.3748 11.6094 11.3748 12.625V18.875C11.3748 19.9297 10.5154 20.75 9.4998 20.75C8.44511 20.75 7.6248 19.9297 7.6248 18.875V12.625C7.6248 11.6094 8.44511 10.75 9.4998 10.75ZM4.8123 18.875V16.375C4.8123 16.2188 4.65605 16.0625 4.4998 16.0625C4.30449 16.0625 4.1873 16.2188 4.1873 16.375V18.875C4.1873 19.0703 4.30449 19.1875 4.4998 19.1875C4.65605 19.1875 4.8123 19.0703 4.8123 18.875ZM4.4998 14.5C5.51542 14.5 6.3748 15.3594 6.3748 16.375V18.875C6.3748 19.9297 5.51542 20.75 4.4998 20.75C3.44511 20.75 2.6248 19.9297 2.6248 18.875V16.375C2.6248 15.3594 3.44511 14.5 4.4998 14.5ZM14.8123 15.125C14.8123 14.9688 14.656 14.8125 14.4998 14.8125C14.3045 14.8125 14.1873 14.9688 14.1873 15.125V18.875C14.1873 19.0703 14.3045 19.1875 14.4998 19.1875C14.656 19.1875 14.8123 19.0703 14.8123 18.875V15.125ZM12.6248 15.125C12.6248 14.1094 13.4451 13.25 14.4998 13.25C15.5154 13.25 16.3748 14.1094 16.3748 15.125V18.875C16.3748 19.9297 15.5154 20.75 14.4998 20.75C13.4451 20.75 12.6248 19.9297 12.6248 18.875V15.125ZM19.8123 18.875V12.625C19.8123 12.4688 19.656 12.3125 19.4998 12.3125C19.3045 12.3125 19.1873 12.4688 19.1873 12.625V18.875C19.1873 19.0703 19.3045 19.1875 19.4998 19.1875C19.656 19.1875 19.8123 19.0703 19.8123 18.875ZM19.4998 10.75C20.5154 10.75 21.3748 11.6094 21.3748 12.625V18.875C21.3748 19.9297 20.5154 20.75 19.4998 20.75C18.4451 20.75 17.6248 19.9297 17.6248 18.875V12.625C17.6248 11.6094 18.4451 10.75 19.4998 10.75Z" fill="black"/>
</svg>

<svg xmlns="http://www.w3.org/2000/svg" width="24" height="24" fill="currentColor" class="icon-chart-mixed-outline" viewBox="0 0 24 24">
  <mask id="a" width="21" height="18" x="1" y="3" maskUnits="userSpaceOnUse" style="mask-type:alpha">
    <path d="m21.649 4.93-6.563 5.625a1 1 0 0 1-1.211 0L9.422 6.648l-5.977 3.946a.897.897 0 0 1-1.289-.235c-.312-.43-.195-1.015.235-1.328l6.562-4.375a.94.94 0 0 1 1.133.078L14.5 8.602l5.938-5.118a.974.974 0 0 1 1.328.118.974.974 0 0 1-.117 1.328M9.812 18.875v-6.25a.336.336 0 0 0-.313-.312.31.31 0 0 0-.312.312v6.25c0 .195.117.313.312.313a.31.31 0 0 0 .313-.313M9.5 10.75c1.016 0 1.875.86 1.875 1.875v6.25c0 1.055-.86 1.875-1.875 1.875a1.85 1.85 0 0 1-1.875-1.875v-6.25c0-1.016.82-1.875 1.875-1.875m-4.687 8.125v-2.5a.336.336 0 0 0-.313-.312.31.31 0 0 0-.312.312v2.5c0 .195.117.313.312.313a.31.31 0 0 0 .313-.313M4.5 14.5c1.016 0 1.875.86 1.875 1.875v2.5c0 1.055-.86 1.875-1.875 1.875a1.85 1.85 0 0 1-1.875-1.875v-2.5c0-1.016.82-1.875 1.875-1.875m10.313.625a.336.336 0 0 0-.313-.312.31.31 0 0 0-.312.312v3.75c0 .195.117.313.312.313a.31.31 0 0 0 .313-.313zm-2.188 0c0-1.016.82-1.875 1.875-1.875 1.016 0 1.875.86 1.875 1.875v3.75c0 1.055-.86 1.875-1.875 1.875a1.85 1.85 0 0 1-1.875-1.875zm7.188 3.75v-6.25a.336.336 0 0 0-.313-.312.31.31 0 0 0-.312.312v6.25c0 .195.117.313.312.313a.31.31 0 0 0 .313-.313M19.5 10.75c1.016 0 1.875.86 1.875 1.875v6.25c0 1.055-.86 1.875-1.875 1.875a1.85 1.85 0 0 1-1.875-1.875v-6.25c0-1.016.82-1.875 1.875-1.875"/>
  </mask>
  <g mask="url(#a)">
    <path d="M0 0h24v24H0z"/>
  </g>
</svg>
